assets/icons/ICON_QR-CODE.svg

<svg width="18" height="18" viewBox="0 0 18 18" fill="none" xmlns="http://www.w3.org/2000/svg">
<g clip-path="url(#clip0)">
<path d="M17.2498 6.522C16.835 6.522 16.4998 6.186 16.4998 5.772V2.217C16.4998 1.82175 16.178 1.5 15.7835 1.5H12.2285C11.8138 1.5 11.4785 1.164 11.4785 0.75C11.4785 0.336 11.8138 0 12.2285 0H15.7835C17.006 0 17.9998 0.9945 17.9998 2.217V5.772C17.9998 6.186 17.6645 6.522 17.2498 6.522Z" fill="white"/>
<path d="M0.75 6.522C0.33525 6.522 0 6.186 0 5.772V2.217C0 0.9945 0.99375 0 2.21625 0H5.77125C6.186 0 6.52125 0.336 6.52125 0.75C6.52125 1.164 6.186 1.5 5.77125 1.5H2.21625C1.82175 1.5 1.5 1.82175 1.5 2.217V5.772C1.5 6.186 1.16475 6.522 0.75 6.522Z" fill="white"/>
<path d="M15.7835 18H12.2285C11.8138 18 11.4785 17.664 11.4785 17.25C11.4785 16.836 11.8138 16.5 12.2285 16.5H15.7835C16.178 16.5 16.4998 16.1783 16.4998 15.783V12.228C16.4998 11.814 16.835 11.478 17.2498 11.478C17.6645 11.478 17.9998 11.814 17.9998 12.228V15.783C17.9998 17.0055 17.006 18 15.7835 18Z" fill="white"/>
<path d="M5.77125 18H2.21625C0.99375 18 0 17.0055 0 15.783V12.228C0 11.814 0.33525 11.478 0.75 11.478C1.16475 11.478 1.5 11.814 1.5 12.228V15.783C1.5 16.1783 1.82175 16.5 2.21625 16.5H5.77125C6.186 16.5 6.52125 16.836 6.52125 17.25C6.52125 17.664 6.186 18 5.77125 18Z" fill="white"/>
<line x1="1" y1="8.75" x2="17" y2="8.75" stroke="white" stroke-width="2" stroke-linecap="round" stroke-linejoin="round"/>
</g>
<defs>
<clipPath id="clip0">
<path d="M0 0H18V18H0V0Z" fill="white"/>
</clipPath>
</defs>
</svg>

<svg fill="#FFFFFF" version="1.1" id="Layer_1" xmlns="http://www.w3.org/2000/svg" xmlns:xlink="http://www.w3.org/1999/xlink" x="0px" y="0px"
	 width="18px" height="18px" viewBox="0 0 18 18" enable-background="new 0 0 18 18" xml:space="preserve">
<g>
	<defs>
		<rect id="SVGID_1_" width="18" height="18"/>
	</defs>
	<clipPath id="SVGID_2_">
		<use xlink:href="#SVGID_1_"  overflow="visible"/>
	</clipPath>
	<g clip-path="url(#SVGID_2_)">
		<path d="M17.25,6.522c-0.415,0-0.75-0.336-0.75-0.75V2.217c0-0.395-0.322-0.717-0.717-0.717h-3.555
			c-0.414,0-0.75-0.336-0.75-0.75S11.814,0,12.229,0h3.555C17.006,0,18,0.995,18,2.217v3.555C18,6.186,17.664,6.522,17.25,6.522z"/>
		<path d="M0.75,6.522C0.335,6.522,0,6.186,0,5.772V2.217C0,0.995,0.994,0,2.216,0h3.555
			c0.415,0,0.75,0.336,0.75,0.75S6.186,1.5,5.771,1.5H2.216C1.822,1.5,1.5,1.822,1.5,2.217v3.555C1.5,6.186,1.165,6.522,0.75,6.522z
			"/>
		<path d="M15.783,18h-3.555c-0.414,0-0.75-0.336-0.75-0.75s0.336-0.75,0.75-0.75h3.555
			c0.395,0,0.717-0.322,0.717-0.717v-3.555c0-0.414,0.335-0.75,0.75-0.75c0.414,0,0.75,0.336,0.75,0.75v3.555
			C18,17.006,17.006,18,15.783,18z"/>
		<path d="M5.771,18H2.216C0.994,18,0,17.006,0,15.783v-3.555c0-0.414,0.335-0.75,0.75-0.75s0.75,0.336,0.75,0.75
			v3.555c0,0.395,0.322,0.717,0.716,0.717h3.555c0.415,0,0.75,0.336,0.75,0.75S6.186,18,5.771,18z"/>
		<path d="M17,9.75H1c-0.552,0-1-0.448-1-1s0.448-1,1-1h16c0.553,0,1,0.448,1,1S17.553,9.75,17,9.75z"/>
	</g>
</g>
</svg>
